X:1
T:Two Octave Major Scales (Fiddle)
M:4/4
L:1/8
Q:1/4=100
K:G
G,A,B,C DEFG | ABcd efga | g2 z2 |
[K:D]
DEFG ABcd | efga b_c'd'2 | d2 z2 |
[K:A]
A,B,CD EFGA | Bcde fgab | a2 z2 |]
